X:1
T:Title
%%score { ( 1 3 ) | ( 2 4 ) }
L:1/8
M:4/4
K:F
V:1 treble nm="Grand Piano"
V:3 treble 
V:2 bass 
V:4 bass 
V:1
 z4 z2[Q:1/4=100] C2 | A3 A AFGA | B4 A2 A2 | [CEA]3 [B,EG] [A,_E^F][B,=EG][DEB][CEA] |[M:3/4] A6 | %5
[M:1/4] C2 |[M:4/4] A3 A AFGA | B4 A2 A2 | G3 c c=BAB |[M:3/4] [CEc]6 |[M:1/4] c2 | %11
[M:4/4] d2 [Fc]2 A2 F2 | B4 z4 | [EA]2 [EG]2 [Ed]2 [Ee]2 |[M:3/4] c6 |[M:1/4] F2 | %16
[M:4/4] [FB]2 [FB]2 [_EA]2 [EA]2 |[M:9/8] .d3 z3 z3 |[M:4/4] [DEB]2 [DEB]2 [CEA]2 [B,EG]2 | %19
[M:3/4] [F,A,CF]6 |] %20
V:2
 z4 z2 [F,A,]2 | [F,CF]3 [F,CF] [F,CF][F,A,][F,B,F][F,CF] | [F,DF]4 [F,CF]2 [F,CF]2 | %3
 C,3 C, C,C,C,C, |[M:3/4] [F,CF]6 |[M:1/4] [F,A,]2 | %6
[M:4/4] [F,CF]3 [F,CF] [F,CF][F,A,][K:treble][F,B,F][F,CF] | [F,DF]4 [F,CF]2 [F,CF]2 | %8
 [G,CE]3 [G,EG] [G,DF][G,DF][G,CF][G,DF] |[M:3/4][K:bass] C,6 |[M:1/4] C2 | %11
[M:4/4] [F,A,F]2 [C,A,]2 [F,A,C]2 [C,A,C]2 | [G,F]2 z2 z4 | [C,C]2 [C,B,]2 [C,B,]2 [C,C]2 | %14
[M:3/4] [F,A,F]2 [G,B,]2 [A,C]2 |[M:1/4] [F,A,C]2 |[M:4/4] [D,B,]2 [D,F,]2 [C,^F,]2 [C,F,]2 | %17
[M:9/8] [B,,G,]2 [D,^F,]- [D,F,] [G,D]2- [G,D] [B,,G,]2 |[M:4/4] C,2 C,2 C,2 C,2 |[M:3/4] F,,6 |] %20
V:3
 x8 | x8 | x8 | x8 |[M:3/4] x6 |[M:1/4] x2 |[M:4/4] x8 | x8 | x8 |[M:3/4] x6 |[M:1/4] x2 | %11
[M:4/4] x8 | z2 ED B2 [EB]2 | x8 |[M:3/4] z2 E2 F2 |[M:1/4] x2 |[M:4/4] x8 | %17
[M:9/8] D2- [Dc]- [Dc] B2- B D2 |[M:4/4] x8 |[M:3/4] x6 |] %20
V:4
 x8 | x8 | x8 | x8 |[M:3/4] x6 |[M:1/4] x2 |[M:4/4] x6[K:treble] x2 | x8 | x8 |[M:3/4][K:bass] x6 | %10
[M:1/4] x2 |[M:4/4] x8 | B,2- [C,B,]2 [G,B,E]2 [C,G,]2 | x8 |[M:3/4] x6 |[M:1/4] x2 |[M:4/4] x8 | %17
[M:9/8] x9 |[M:4/4] x8 |[M:3/4] x6 |] %20

